!!!OTL: Die stumme Orgelpfeife (274), S. 585
!!!id: T0464
**kern
*clefG2
*k[f#c#]
*D:
{8a
=1
4a
8a
4a
8b
=2
8g
8g
16g
16g
4g}
=3
{16a
16a
=4
8a
8a
8a
8b
8f#
8f#
=5
4a}
4.r
=6
{8a
=7
4a
8a
8dd
8cc#
8b
=8
8b
8a
8a
8dd
8a}
=9
{8a
=10
8a
8b
8b
4a
8c#
=11
4d}
4.r
==
*-
!!!minrhy: 16
!!!meters: 6/8 ]  ZZ[4
!!!cut: Die stumme Orgelpfeife (274), S. 585
!!!reg: Luxemburg
!!!trd: Singendes Volk, Esch-Alzette, 1937 posth.
!!!rhy1: X_  X__X_X__X_  X_X_XXX__
!!!rhy2: XX  X_X_X_X_X_X_  X__0__.
!!!key: T0464  16  D 6/8 ]  ZZ[4
!!!mod: SECHSTONSKALA DUR ?]  AMBITUS[9b
!!!kad: 4551
!!!akz: 5544_565_5+16+1_551_
!!!fot: 'a__b__c__aw_
!!!for: 'a__b__c__d__
!!!fok: '\__V__^__\__
!! PHRAS[AUFTAKTIG]
!!!fkt: ???
!!!bem: StraPen, fff Witry, 13.12.1932
!! THILL; Mathias
!! PR[34] 2K[7] 2G[16] 3K[0] 3G[4] 4A[0] 4Ü[0] 5A[2] 6K[0] 6G[2]
!! 7K[0] 7G[0] 8A[0] MEHR[0] SI[30] ABS[56] SR[23] SP[7]
!! ST[10] 2k[5] 2g[23] 3k[4] 3g[2] 4d[0] 4ü[0] 5d[2] 6k[0] 6g[0]
!! 7k[0] 7g[0] 8d[0] mehr[0] si[36] dm[-6] sr[29] sp[7]
!! 1F[7] 2F[64] 3F[20] 4F[2] LF[0] 2P[0] 3P[7] 4P[0] TRI[0] DF[5] AB[59]
!! TF[0] U3K[0] U3[0] U4[0] U4Ü[0] U5[5] U6K[0] U6[0] U7K[0] U7[2]
!! N1[11] N2K[0] N2[12] N3K[0] N3[33] N4[12] N4Ü[0] N5[18] N6K[0] N6[7]
!!!n7k: 0] N7[0] O1[0] O2K[0] O2[0] O3K[0] O3[0] HÖ[0
